X:1
T:RVW2/1/43 Lakes Of Cold Finn-0
T:RVW2/1/43 Lakes Of Cold Finn-0
T:Sung by Mr. Harmon of Bassingbourne, July 30th 1907 (1 of 2)
T:Transcribed by Simon Furey and Lewis Jones
C:Transcribed by Simon Furey and Lewis Jones
L:1/8
Q:1/4=90
M:3/4
K:G
V:1 treble 
V:1
"^Editorial suggestion" GA | B2 e2 f2 | e2 d2 A2 | B2 G2 F2 | G4 |: g2 | g2 a2 dd | g4 fe | %8
 e2 d2 B2 | A4 :| GB | d2 g2 a2 | dc A2 dc | B2 G2 F2 | G4 |] %15

